1-js/09-classes/06-instanceof/instanceof.svg

<?xml version="1.0" encoding="UTF-8"?>
<svg width="509px" height="435px" viewBox="0 0 509 435" version="1.1" xmlns="http://www.w3.org/2000/svg" xmlns:xlink="http://www.w3.org/1999/xlink">
    <!-- Generator: sketchtool 61.2 (101010) - https://sketch.com -->
    <title>instanceof.svg</title>
    <desc>Created with sketchtool.</desc>
    <g id="inheritance" stroke="none" stroke-width="1" fill="none" fill-rule="evenodd">
        <g id="instanceof.svg">
            <rect id="Rectangle-1" stroke="#E8C48E" stroke-width="2" fill="#FFF9EB" x="9" y="200" width="139" height="28"></rect>
            <text id="Animal.prototype" font-family="PTMono-Regular, PT Mono" font-size="14" font-weight="normal" fill="#8A704D">
                <tspan x="8" y="192">Animal.prototype</tspan>
            </text>
            <rect id="Rectangle-1" stroke="#E8C48E" stroke-width="2" fill="#FFF9EB" x="9" y="94" width="139" height="28"></rect>
            <text id="Object.prototype" font-family="PTMono-Regular, PT Mono" font-size="14" font-weight="normal" fill="#8A704D">
                <tspan x="8" y="86">Object.prototype</tspan>
            </text>
            <path id="Line-2" d="M68.5,134.5 L75.5,148.5 L69.5,148.5 L69.5,176.5 L67.5,176.5 L67.5,148.5 L61.5,148.5 L68.5,134.5 Z" fill="#EE6B47" fill-rule="nonzero"></path>
            <rect id="Rectangle-1-Copy" stroke="#E8C48E" stroke-width="2" fill="#FFF9EB" x="9" y="307" width="139" height="28"></rect>
            <text id="Rabbit.prototype" font-family="PTMono-Regular, PT Mono" font-size="14" font-weight="normal" fill="#8A704D">
                <tspan x="8" y="299">Rabbit.prototype</tspan>
            </text>
            <path id="Line-2-Copy" d="M68.5,241.5 L75.5,255.5 L69.5,255.5 L69.5,283.5 L67.5,283.5 L67.5,255.5 L61.5,255.5 L68.5,241.5 Z" fill="#EE6B47" fill-rule="nonzero"></path>
            <text id="[[Prototype]]" font-family="PTMono-Regular, PT Mono" font-size="14" font-weight="normal" fill="#8A704D">
                <tspan x="80" y="266">[[Prototype]]</tspan>
            </text>
            <rect id="Rectangle-1-Copy-2" stroke="#E8C48E" stroke-width="2" fill="#FFF9EB" x="9" y="398" width="139" height="28"></rect>
            <text id="rabbit" font-family="PTMono-Regular, PT Mono" font-size="14" font-weight="normal" fill="#8A704D">
                <tspan x="8" y="390">rabbit</tspan>
            </text>
            <path id="Line-2-Copy-2" d="M68.5,347.5 L75.5,361.5 L69.5,361.5 L69.5,389.5 L67.5,389.5 L67.5,361.5 L61.5,361.5 L68.5,347.5 Z" fill="#EE6B47" fill-rule="nonzero"></path>
            <text id="[[Prototype]]-Copy-3" font-family="PTMono-Regular, PT Mono" font-size="14" font-weight="normal" fill="#8A704D">
                <tspan x="80" y="372">[[Prototype]]</tspan>
            </text>
            <text id="[[Prototype]]-Copy" font-family="PTMono-Regular, PT Mono" font-size="14" font-weight="normal" fill="#8A704D">
                <tspan x="80" y="159">[[Prototype]]</tspan>
            </text>
            <path id="Line-2" d="M70.5,27.5 L77.5,41.5 L71.5,41.5 L71.5,69.5 L69.5,69.5 L69.5,41.5 L63.5,41.5 L70.5,27.5 Z" fill="#EE6B47" fill-rule="nonzero"></path>
            <text id="null" font-family="PTMono-Regular, PT Mono" font-size="14" font-weight="normal" fill="#8A704D">
                <tspan x="56" y="16">null</tspan>
            </text>
            <text id="[[Prototype]]-Copy-2" font-family="PTMono-Regular, PT Mono" font-size="14" font-weight="normal" fill="#8A704D">
                <tspan x="81" y="54">[[Prototype]]</tspan>
            </text>
            <text id="=-Animal.prototype?" font-family="PTMono-Regular, PT Mono" font-size="16" font-weight="normal" fill="#EE6B47">
                <tspan x="317" y="217">= Animal.prototype?</tspan>
            </text>
            <path id="Line" d="M305.787391,232.115296 L306.884704,233.787391 L306.048656,234.336048 L189.753,310.654 L193.045266,315.671145 L177.5,317.5 L185.364076,303.966474 L188.656,308.982 L304.951344,232.663952 L305.787391,232.115296 Z" fill="#EE6B47" fill-rule="nonzero"></path>
            <path id="Line-Copy" d="M198.5,205.5 L198.5,211.5 L305.5,211.5 L305.5,213.5 L198.5,213.5 L198.5,219.5 L184.5,212.5 L198.5,205.5 Z" fill="#EE6B47" fill-rule="nonzero"></path>
            <path id="Line-Copy-2" d="M182.5,122.5 L198.100419,123.775506 L194.988,128.905 L305.018612,195.64499 L305.873622,196.163603 L304.836397,197.873622 L303.981388,197.35501 L193.951,130.615 L190.839847,135.745639 L182.5,122.5 Z" fill="#EE6B47" fill-rule="nonzero"></path>
        </g>
    </g>
</svg>

<svg xmlns="http://www.w3.org/2000/svg" width="509" height="435" viewBox="0 0 509 435"><defs><style>@import url(https://fonts.googleapis.com/css?family=Open+Sans:bold,italic,bolditalic%7CPT+Mono);@font-face{font-family:&apos;PT Mono&apos;;font-weight:700;font-style:normal;src:local(&apos;PT MonoBold&apos;),url(/font/PTMonoBold.woff2) format(&apos;woff2&apos;),url(/font/PTMonoBold.woff) format(&apos;woff&apos;),url(/font/PTMonoBold.ttf) format(&apos;truetype&apos;)}</style></defs><g id="inheritance" fill="none" fill-rule="evenodd" stroke="none" stroke-width="1"><g id="instanceof.svg"><path id="Rectangle-1" fill="#FBF2EC" stroke="#DBAF88" stroke-width="2" d="M9 200h139v28H9z"/><text id="Animal.prototype" fill="#AF6E24" font-family="PTMono-Regular, PT Mono" font-size="14" font-weight="normal"><tspan x="8" y="192">Animal.prototype</tspan></text><path id="Rectangle-1" fill="#FBF2EC" stroke="#DBAF88" stroke-width="2" d="M9 94h139v28H9z"/><text id="Object.prototype" fill="#AF6E24" font-family="PTMono-Regular, PT Mono" font-size="14" font-weight="normal"><tspan x="8" y="86">Object.prototype</tspan></text><path id="Line-2" fill="#C06334" fill-rule="nonzero" d="M68.5 134.5l7 14h-6v28h-2v-28h-6l7-14z"/><path id="Rectangle-1-Copy" fill="#FBF2EC" stroke="#DBAF88" stroke-width="2" d="M9 307h139v28H9z"/><text id="Rabbit.prototype" fill="#AF6E24" font-family="PTMono-Regular, PT Mono" font-size="14" font-weight="normal"><tspan x="8" y="299">Rabbit.prototype</tspan></text><path id="Line-2-Copy" fill="#C06334" fill-rule="nonzero" d="M68.5 241.5l7 14h-6v28h-2v-28h-6l7-14z"/><text id="[[Prototype]]" fill="#AF6E24" font-family="PTMono-Regular, PT Mono" font-size="14" font-weight="normal"><tspan x="80" y="266">[[Prototype]]</tspan></text><path id="Rectangle-1-Copy-2" fill="#FBF2EC" stroke="#DBAF88" stroke-width="2" d="M9 398h139v28H9z"/><text id="rabbit" fill="#AF6E24" font-family="PTMono-Regular, PT Mono" font-size="14" font-weight="normal"><tspan x="8" y="390">rabbit</tspan></text><path id="Line-2-Copy-2" fill="#C06334" fill-rule="nonzero" d="M68.5 347.5l7 14h-6v28h-2v-28h-6l7-14z"/><text id="[[Prototype]]-Copy-3" fill="#AF6E24" font-family="PTMono-Regular, PT Mono" font-size="14" font-weight="normal"><tspan x="80" y="372">[[Prototype]]</tspan></text><text id="[[Prototype]]-Copy" fill="#AF6E24" font-family="PTMono-Regular, PT Mono" font-size="14" font-weight="normal"><tspan x="80" y="159">[[Prototype]]</tspan></text><path id="Line-2" fill="#C06334" fill-rule="nonzero" d="M70.5 27.5l7 14h-6v28h-2v-28h-6l7-14z"/><text id="null" fill="#AF6E24" font-family="PTMono-Regular, PT Mono" font-size="14" font-weight="normal"><tspan x="56" y="16">null</tspan></text><text id="[[Prototype]]-Copy-2" fill="#AF6E24" font-family="PTMono-Regular, PT Mono" font-size="14" font-weight="normal"><tspan x="81" y="54">[[Prototype]]</tspan></text><text id="=-Animal.prototype?" fill="#C06334" font-family="PTMono-Regular, PT Mono" font-size="16" font-weight="normal"><tspan x="317" y="217">= Animal.prototype?</tspan></text><path id="Line" fill="#C06334" fill-rule="nonzero" d="M305.787 232.115l1.098 1.672-.836.549-116.296 76.318 3.292 5.017L177.5 317.5l7.864-13.534 3.292 5.016 116.295-76.318.836-.549z"/><path id="Line-Copy" fill="#C06334" fill-rule="nonzero" d="M198.5 205.5v6h107v2h-107v6l-14-7 14-7z"/><path id="Line-Copy-2" fill="#C06334" fill-rule="nonzero" d="M182.5 122.5l15.6 1.276-3.112 5.129 110.03 66.74.856.519-1.038 1.71-.855-.519-110.03-66.74-3.111 5.13-8.34-13.245z"/></g></g></svg>
